X:2184
T:General Monk's March
O:england
M:2/2
C:
S:Bacon (CJS from Benfield (RD))
N:
A:Bledington
R:Reel
%P:A/2(AB)$^4$(A)
P:A.(AB)4(A)
L:1/8
K:G
I:speed 400
L:1/8
P:A
|:G2 G>B A2 A>c|B2 g>e d2 c2|BdBG   ABcA|1 G2 G>A G2 D2:|2 G2 G>A G4||\
P:B
|:d>ed>c B2 B2|c>dc>B A2 A2|d>ed>c B2 B2|c>dc>B  A4|\
G2 G>B A2 A>c|B2 g>e d2 c2|B>dB>G A>Bc>A|G2 G>A  G4:|
